X:1
T: Mrs. Findlay of Haywood
C:
R:Strathspey
Q: 128
K:D
M:4/4
L:1/16
|:A,2|DD3 F3A d3e f3a|g3f e3d ((3c2B2A2) ((3G2F2E2) |DD3 F3A d3e f3a|gfed cdeg fd3 d3A|
DD3 F3A d3e f3a|g3f e3d ((3B2c2d2) ((3c2B2A2) |((3B2G2B2) ((3d2c2B2) ((3c2A2f2) ((3g2f2e2) |((3B2c2d2) ((3e2f2g2) fd3 d2f2|
a3f d3B A3F D3F|GB3 e3f gfed cBAG|FD3 A3F GE3 e3f|((3g2f2e2) ((3c2d2e2) fd3 d3f|
a3f d3B A3F D3F|GB3 e3f gfed cBAG|FD3 A3F GE3 e3d|((3c2B2A2) ((3G2F2E2) FD3 D2:|
